src/svg/24/pen_outline_24.svg

<svg width="24" height="24" viewBox="0 0 24 24" fill="none" xmlns="http://www.w3.org/2000/svg">
<path fill-rule="evenodd" clip-rule="evenodd" d="M14.2593 7.47798L5.2222 16.5151C5.01591 16.7214 4.90002 17.0012 4.90002 17.2929L4.90002 19C4.90002 19.0553 4.94479 19.1 5.00002 19.1H6.70712C6.99886 19.1 7.27865 18.9841 7.48494 18.7778L16.522 9.74072L14.2593 7.47798ZM15.5321 6.20519L17.7948 8.46793L18.9262 7.33656C19.1605 7.10225 19.1605 6.72235 18.9262 6.48803L17.512 5.07382C17.2777 4.8395 16.8978 4.8395 16.6635 5.07382L15.5321 6.20519ZM3.94941 15.2423L15.3907 3.80103C16.3279 2.86377 17.8475 2.86377 18.7848 3.80103L20.199 5.21524C21.1363 6.1525 21.1363 7.6721 20.199 8.60935L8.75773 20.0506C8.21388 20.5945 7.47625 20.9 6.70712 20.9L5.00002 20.9C3.95068 20.9 3.10002 20.0494 3.10002 19L3.10002 17.2929C3.10002 16.5238 3.40555 15.7862 3.94941 15.2423Z" fill="currentColor"/>
</svg>

<svg fill="none" height="24" width="24" xmlns="http://www.w3.org/2000/svg"><path clip-rule="evenodd" d="M14.26 7.478l-9.038 9.037a1.1 1.1 0 00-.322.778V19a.1.1 0 00.1.1h1.707a1.1 1.1 0 00.778-.322l9.037-9.037zm1.272-1.273l2.263 2.263 1.131-1.131a.6.6 0 000-.849l-1.414-1.414a.6.6 0 00-.849 0zM3.95 15.242L15.391 3.801a2.4 2.4 0 013.394 0l1.414 1.414a2.4 2.4 0 010 3.394L8.758 20.051a2.9 2.9 0 01-2.05.849H5A1.9 1.9 0 013.1 19v-1.707a2.9 2.9 0 01.85-2.05z" fill="currentColor" fill-rule="evenodd"/></svg>
